lib/logo_tmp/nrk-logo-nrk-sport-symbol--color.svg

<svg width="26" height="26" viewBox="0 0 26 26" fill="none" xmlns="http://www.w3.org/2000/svg">
<path d="M13.152 0.5C6.237 0.5 0.5 5.94 0.5 12.885C0.5 19.69 5.924 25.5 12.839 25.5C19.68 25.5 25.5 20.097 25.5 13.162C25.5 6.217 20.076 0.5 13.152 0.5Z" fill="#DA2E3D"/>
<path d="M13.741 7.02002C14.229 7.02002 14.551 7.39002 14.551 7.87902C14.5507 7.9833 14.5298 8.0865 14.4893 8.18261C14.4488 8.27872 14.3896 8.36582 14.3152 8.43886C14.2408 8.5119 14.1526 8.56942 14.0557 8.60807C13.9588 8.64672 13.8553 8.66574 13.751 8.66402C13.18 8.66402 12.921 8.23902 12.921 7.85102C12.921 7.28802 13.336 7.02102 13.741 7.02102V7.02002ZM11.356 7.16802C11.356 7.12202 11.356 7.12202 11.393 7.12202H12.747C12.784 7.12202 12.784 7.12202 12.784 7.16802V11.287C12.784 11.342 12.784 11.342 12.747 11.342H11.393C11.356 11.342 11.356 11.342 11.356 11.287V7.16702V7.16802ZM8.76 7.12202H9.644C10.049 7.12202 10.344 7.39002 10.426 7.81402L11.218 11.287C11.218 11.287 11.218 11.342 11.172 11.342H9.69C9.69 11.342 9.653 11.342 9.644 11.287L8.714 7.16702C8.714 7.12202 8.714 7.12202 8.76 7.12202ZM7.148 7.16802C7.148 7.12202 7.148 7.12202 7.194 7.12202H8.631V11.342H7.194C7.148 11.342 7.148 11.342 7.148 11.287V7.16702V7.16802ZM6.025 17.752C5.472 17.752 5.003 17.668 4.616 17.475V16.255H5.362L5.528 16.81C5.70341 16.8812 5.8907 16.9185 6.08 16.92C6.522 16.92 6.743 16.726 6.743 16.366C6.743 15.369 4.616 15.896 4.616 14.122C4.616 13.18 5.417 12.709 6.384 12.709C6.881 12.709 7.296 12.819 7.71 13.069V14.094H6.964L6.826 13.624C6.69392 13.5722 6.55383 13.5438 6.412 13.54C5.942 13.54 5.749 13.762 5.749 14.039C5.749 14.898 7.849 14.565 7.849 16.172C7.849 17.142 7.157 17.752 6.025 17.752ZM10.537 13.956C11.31 13.956 11.89 14.426 11.89 15.784C11.89 17.114 11.338 17.752 10.454 17.752C9.984 17.752 9.68 17.53 9.542 17.364V18.417L10.178 18.583V19.137H8.133V18.583L8.493 18.472V14.759L8.133 14.649V14.067H9.35L9.488 14.482H9.516C9.63426 14.3215 9.78804 14.1905 9.96534 14.0992C10.1426 14.008 10.3386 13.959 10.538 13.956H10.537ZM10.15 16.893C10.537 16.893 10.785 16.616 10.785 15.868C10.785 15.12 10.565 14.87 10.205 14.87C9.985 14.87 9.708 14.953 9.598 15.064V16.726C9.68 16.782 9.957 16.893 10.15 16.893ZM14.183 13.956C15.205 13.956 15.923 14.51 15.923 15.84C15.923 17.142 15.15 17.752 14.1 17.752C13.023 17.752 12.36 17.114 12.36 15.895C12.36 14.565 13.078 13.955 14.183 13.955V13.956ZM14.156 16.92C14.515 16.92 14.791 16.643 14.791 15.84C14.791 15.036 14.515 14.815 14.156 14.815C13.741 14.815 13.465 15.065 13.465 15.84C13.465 16.643 13.714 16.92 14.155 16.92H14.156ZM16.117 11.287C16.117 11.342 16.08 11.342 16.08 11.342H14.671C14.671 11.342 14.634 11.342 14.634 11.287V7.16702C14.634 7.12202 14.671 7.12202 14.671 7.12202H16.081C16.081 7.12202 16.117 7.12202 16.117 7.16802V11.287ZM18.787 15.092C18.649 15.064 18.511 15.064 18.401 15.064C18.097 15.064 17.793 15.203 17.682 15.369V16.976L18.318 17.114V17.668H16.246V17.114L16.633 17.004V14.759L16.246 14.649V14.067H17.406L17.544 14.677H17.572C17.765 14.205 18.097 14.039 18.483 14.039C18.677 14.039 18.843 14.067 18.843 14.067L18.787 15.092ZM19.064 11.342H17.517C17.471 11.342 17.452 11.333 17.443 11.315L16.393 9.53202C16.246 9.25502 16.227 9.17202 16.421 8.85802L17.434 7.16802C17.434 7.16802 17.452 7.12202 17.517 7.12202H19.045C19.073 7.12202 19.082 7.14002 19.073 7.16802L17.913 9.06102C17.848 9.20902 17.857 9.24602 17.959 9.41202L19.073 11.287C19.11 11.333 19.063 11.342 19.063 11.342H19.064ZM21.522 14.87H20.721V16.616C20.721 16.837 20.776 16.92 21.053 16.92C21.163 16.92 21.273 16.893 21.412 16.865L21.522 17.613C21.2366 17.7061 20.9382 17.753 20.638 17.752C19.948 17.752 19.616 17.419 19.616 16.837V14.87H19.174L19.229 14.067H19.671L19.865 13.18H20.721V14.067H21.522V14.87Z" fill="white"/>
</svg>

<svg xmlns="http://www.w3.org/2000/svg" viewBox="0 0 26 26"><path fill="#DA2E3D" d="M13.152.5C6.237.5.5 5.94.5 12.885.5 19.69 5.924 25.5 12.839 25.5c6.841 0 12.661-5.403 12.661-12.338C25.5 6.217 20.076.5 13.152.5Z"/><path fill="#fff" d="M13.741 7.02c.488 0 .81.37.81.859a.788.788 0 0 1-.8.785c-.571 0-.83-.425-.83-.813 0-.563.415-.83.82-.83V7.02Zm-2.385.148c0-.046 0-.046.037-.046h1.354c.037 0 .037 0 .037.046v4.119c0 .055 0 .055-.037.055h-1.354c-.037 0-.037 0-.037-.055v-4.12.001ZM8.76 7.122h.884c.405 0 .7.268.782.692l.792 3.473s0 .055-.046.055H9.69s-.037 0-.046-.055l-.93-4.12c0-.045 0-.045.046-.045Zm-1.612.046c0-.046 0-.046.046-.046h1.437v4.22H7.194c-.046 0-.046 0-.046-.055v-4.12.001ZM6.025 17.752c-.553 0-1.022-.084-1.409-.277v-1.22h.746l.166.555a1.5 1.5 0 0 0 .552.11c.442 0 .663-.194.663-.554 0-.997-2.127-.47-2.127-2.244 0-.942.801-1.413 1.768-1.413.497 0 .912.11 1.326.36v1.025h-.746l-.138-.47a1.224 1.224 0 0 0-.414-.084c-.47 0-.663.222-.663.499 0 .859 2.1.526 2.1 2.133 0 .97-.692 1.58-1.824 1.58Zm4.512-3.796c.773 0 1.353.47 1.353 1.828 0 1.33-.552 1.968-1.436 1.968-.47 0-.774-.222-.912-.388v1.053l.636.166v.554H8.133v-.554l.36-.111v-3.713l-.36-.11v-.582H9.35l.138.415h.028a1.294 1.294 0 0 1 1.022-.526h-.001Zm-.387 2.937c.387 0 .635-.277.635-1.025 0-.748-.22-.998-.58-.998-.22 0-.497.083-.607.194v1.662c.082.056.359.167.552.167Zm4.033-2.937c1.022 0 1.74.554 1.74 1.884 0 1.302-.773 1.912-1.823 1.912-1.077 0-1.74-.638-1.74-1.857 0-1.33.718-1.94 1.823-1.94v.001Zm-.027 2.964c.359 0 .635-.277.635-1.08 0-.804-.276-1.025-.635-1.025-.415 0-.691.25-.691 1.025 0 .803.249 1.08.69 1.08h.001Zm1.961-5.633c0 .055-.037.055-.037.055h-1.409s-.037 0-.037-.055v-4.12c0-.045.037-.045.037-.045h1.41s.036 0 .036.046v4.119Zm2.67 3.805c-.138-.028-.276-.028-.386-.028-.304 0-.608.139-.719.305v1.607l.636.138v.554h-2.072v-.554l.387-.11v-2.245l-.387-.11v-.582h1.16l.138.61h.028c.193-.472.525-.638.911-.638.194 0 .36.028.36.028l-.056 1.025Zm.277-3.75h-1.547c-.046 0-.065-.009-.074-.027l-1.05-1.783c-.147-.277-.166-.36.028-.674l1.013-1.69s.018-.046.083-.046h1.528c.028 0 .037.018.028.046l-1.16 1.893c-.065.148-.056.185.046.351l1.114 1.875c.037.046-.01.055-.01.055h.001Zm2.458 3.528h-.801v1.746c0 .221.055.304.332.304.11 0 .22-.027.359-.055l.11.748a2.82 2.82 0 0 1-.884.139c-.69 0-1.022-.333-1.022-.915V14.87h-.442l.055-.803h.442l.194-.887h.856v.887h.801v.803Z"/></svg>
